svgs/kotatsu.svg

<svg xmlns="http://www.w3.org/2000/svg" viewBox="0 0 192 192"><path fill="none" stroke="#000" stroke-linecap="round" stroke-linejoin="round" stroke-width="8" d="M66.59 38.961c-1.421-1.441 1.135-22.563 9.5-22.461 8.366.103 10.479 16.385 12.498 14.177a9.677 9.677 0 0 1 3.415-2.142A9.724 9.724 0 0 1 96 27.967a9.722 9.722 0 0 1 3.996.568 9.677 9.677 0 0 1 3.415 2.142c2.018 2.207 4.132-14.074 12.497-14.177 8.366-.102 10.921 21.02 9.501 22.461M66.59 38.961S4.601 117.99 59.57 169.5c0 0 7.188 6 31.26 6 0 0 1.259-5.155 5.169-5.155 3.909 0 5.169 5.155 5.169 5.155 24.072 0 31.261-6 31.261-6 54.972-51.51-7.019-130.539-7.019-130.539"/><path fill="none" stroke="#000" stroke-linecap="round" stroke-linejoin="round" stroke-width="8" d="m66.029 106.583 7.509-3.832 6.998 4.253m8.916-11.06L96 92.186"/><path fill="none" stroke="#000" stroke-linecap="round" stroke-linejoin="round" stroke-width="8" d="M134.889 114.968C132.929 73.332 99.363 72.296 96 72.296c-3.364 0-36.928 1.036-38.885 42.672-1.958 41.637 34.161 43.099 38.885 43.193 4.724.095 40.848-1.556 38.889-43.193Z"/><path fill="none" stroke="#000" stroke-linecap="round" stroke-linejoin="round" stroke-width="8" d="m125.97 106.583-7.91-3.952-6.599 4.373m-8.915-11.06-6.549-3.758m5.713-34.934c1.771-4.688-3.344-4.189-5.71-4.189-2.365 0-7.481-.501-5.709 4.189 1.772 4.691 4.732 5.981 5.709 5.981.978 0 3.938-1.29 5.71-5.981Zm-21.36-9.006a1.37 1.37 0 0 1-.418.958 1.383 1.383 0 0 1-1.943-.022 1.365 1.365 0 0 1 .012-1.931c.258-.255.607-.399.971-.399v1.37Zm34.054 0a1.364 1.364 0 0 1-.417.958 1.385 1.385 0 0 1-1.943-.022 1.368 1.368 0 0 1 .011-1.931c.258-.255.608-.399.971-.399v1.37Z"/></svg>

<svg
    xmlns="http://www.w3.org/2000/svg"
    viewBox="0 0 192 192"
    id="vector">
    <path
        id="path"
        d="M 66.59 38.961 C 65.169 37.52 67.725 16.398 76.09 16.5 C 84.456 16.603 86.569 32.885 88.588 30.677 C 89.562 29.732 90.726 29.002 92.003 28.535 C 93.28 28.068 94.642 27.875 96 27.967 C 97.357 27.875 98.719 28.068 99.996 28.535 C 101.273 29.002 102.437 29.732 103.411 30.677 C 105.429 32.884 107.543 16.603 115.908 16.5 C 124.274 16.398 126.829 37.52 125.409 38.961"
        fill="none"
        stroke="#000000"
        stroke-width="8"
        stroke-linecap="round"
        stroke-linejoin="round"/>
    <path
        id="path_1"
        d="M 66.59 38.961 C 66.59 38.961 4.601 117.99 59.57 169.5 C 59.57 169.5 66.758 175.5 90.83 175.5 C 90.83 175.5 92.089 170.345 95.999 170.345 C 99.908 170.345 101.168 175.5 101.168 175.5 C 125.24 175.5 132.429 169.5 132.429 169.5 C 187.401 117.99 125.41 38.961 125.41 38.961"
        fill="none"
        stroke="#000000"
        stroke-width="8"
        stroke-linecap="round"
        stroke-linejoin="round"/>
    <path
        id="path_2"
        d="M 66.029 106.583 L 73.538 102.751 L 80.536 107.004 M 89.452 95.944 L 96 92.186"
        fill="none"
        stroke="#000000"
        stroke-width="8"
        stroke-linecap="round"
        stroke-linejoin="round"/>
    <path
        id="path_3"
        d="M 134.889 114.968 C 132.929 73.332 99.363 72.296 96 72.296 C 92.636 72.296 59.072 73.332 57.115 114.968 C 55.157 156.605 91.276 158.067 96 158.161 C 100.724 158.256 136.848 156.605 134.889 114.968 Z"
        fill="none"
        stroke="#000000"
        stroke-width="8"
        stroke-linecap="round"
        stroke-linejoin="round"/>
    <path
        id="path_4"
        d="M 125.97 106.583 L 118.06 102.631 L 111.461 107.004 M 102.546 95.944 L 95.997 92.186 M 101.71 57.252 C 103.481 52.564 98.366 53.063 96 53.063 C 93.635 53.063 88.519 52.562 90.291 57.252 C 92.063 61.943 95.023 63.233 96 63.233 C 96.978 63.233 99.938 61.943 101.71 57.252 Z M 80.35 48.246 C 80.343 48.607 80.193 48.952 79.932 49.204 C 79.671 49.456 79.32 49.595 78.956 49.591 C 78.592 49.587 78.244 49.44 77.989 49.182 C 77.734 48.924 77.592 48.575 77.594 48.214 C 77.596 47.852 77.743 47.506 78.001 47.251 C 78.259 46.996 78.608 46.852 78.972 46.852 L 78.972 48.222 Z M 114.404 48.246 C 114.398 48.607 114.248 48.952 113.987 49.204 C 113.726 49.456 113.374 49.595 113.011 49.591 C 112.647 49.587 112.299 49.44 112.044 49.182 C 111.789 48.924 111.647 48.575 111.649 48.214 C 111.651 47.852 111.797 47.506 112.055 47.251 C 112.313 46.996 112.663 46.852 113.026 46.852 L 113.026 48.222 Z"
        fill="none"
        stroke="#000000"
        stroke-width="8"
        stroke-linecap="round"
        stroke-linejoin="round"/>
</svg>
